src/app/icons/table.svg

<svg xmlns="http://www.w3.org/2000/svg" height="16" width="16" viewBox="0 0 16 16">
	<path fill-rule="evenodd" d="M 1.75 1 A 1.75 1.75 0 0 0 0 2.75 L 0 6.75 C 0 7.122 0.11645318 7.467 0.31445312 7.75 A 1.742 1.742 0 0 0 0 8.75 L 0 12.75 C 0 13.716 0.784 14.5 1.75 14.5 L 14.25 14.5 A 1.75 1.75 0 0 0 16 12.75 L 16 8.75 C 16 8.378 15.883547 8.033 15.685547 7.75 C 15.883547 7.467 16 7.122 16 6.75 L 16 2.75 A 1.75 1.75 0 0 0 14.25 1 L 1.75 1 z M 1.734375 2.5 A 0.25 0.25 0 0 1 1.7363281 2.5 A 0.25 0.25 0 0 1 1.75 2.5 L 4.7207031 2.5 L 4.7207031 7 L 1.75 7 A 0.25 0.25 0 0 1 1.5 6.75 L 1.5 2.75 A 0.25 0.25 0 0 1 1.734375 2.5 z M 6.3808594 2.5 L 9.6679688 2.5 L 9.6679688 7 L 6.3808594 7 L 6.3808594 2.5 z M 11.328125 2.5 L 14.25 2.5 A 0.25 0.25 0 0 1 14.5 2.75 L 14.5 6.75 A 0.25 0.25 0 0 1 14.25 7 L 11.328125 7 L 11.328125 2.5 z M 1.734375 8.5 A 0.25 0.25 0 0 1 1.7363281 8.5 A 0.25 0.25 0 0 1 1.75 8.5 L 4.7207031 8.5 L 4.7207031 13 L 1.75 13 C 1.612 13 1.5 12.888 1.5 12.75 L 1.5 8.75 A 0.25 0.25 0 0 1 1.734375 8.5 z M 6.3808594 8.5 L 9.6679688 8.5 L 9.6679688 13 L 6.3808594 13 L 6.3808594 8.5 z M 11.328125 8.5 L 14.25 8.5 A 0.25 0.25 0 0 1 14.5 8.75 L 14.5 12.75 A 0.25 0.25 0 0 1 14.25 13 L 11.328125 13 L 11.328125 8.5 z "/>
</svg>

<svg xmlns="http://www.w3.org/2000/svg" height="16" width="16" viewBox="0 0 16 16"><path fill-rule="evenodd" d="M1.75 1A1.75 1.75 0 0 0 0 2.75v4c0 .372.116.717.314 1a1.742 1.742 0 0 0-.314 1v4c0 .966.784 1.75 1.75 1.75h12.5A1.75 1.75 0 0 0 16 12.75v-4c0-.372-.116-.717-.314-1 .198-.283.314-.628.314-1v-4A1.75 1.75 0 0 0 14.25 1H1.75zm-.016 1.5a.25.25 0 0 1 .002 0 .25.25 0 0 1 .014 0h2.97V7H1.75a.25.25 0 0 1-.25-.25v-4a.25.25 0 0 1 .234-.25zm4.647 0h3.287V7H6.381V2.5zm4.947 0h2.922a.25.25 0 0 1 .25.25v4a.25.25 0 0 1-.25.25h-2.922V2.5zm-9.594 6a.25.25 0 0 1 .002 0 .25.25 0 0 1 .014 0h2.97V13H1.75a.25.25 0 0 1-.25-.25v-4a.25.25 0 0 1 .234-.25zm4.647 0h3.287V13H6.381V8.5zm4.947 0h2.922a.25.25 0 0 1 .25.25v4a.25.25 0 0 1-.25.25h-2.922V8.5z"/></svg>
